src/assets/logos/contentful.svg

<?xml version="1.0" encoding="UTF-8"?>
<!-- Uploaded to: SVG Repo, www.svgrepo.com, Generator: SVG Repo Mixer Tools -->
<svg width="800px" height="800px" viewBox="-16.5 0 289 289" version="1.1" xmlns="http://www.w3.org/2000/svg" xmlns:xlink="http://www.w3.org/1999/xlink" preserveAspectRatio="xMidYMid">
	<g>
		<path d="M87.333315,200.77659 C72.0274763,186.371095 63.0240418,166.563539 63.0240418,144.054953 C63.0240418,121.546366 72.0274763,101.73881 86.4329716,87.333315 C99.0377799,74.7285067 99.0377799,54.9209507 86.4329716,42.3161423 C73.8281632,29.711334 54.0206072,29.711334 41.4157989,42.3161423 C16.2061822,68.4261025 0,104.439841 0,144.054953 C0,183.670065 16.2061822,219.683803 42.3161423,245.793763 C54.9209507,258.398571 74.7285067,258.398571 87.333315,245.793763 C99.0377799,233.188955 99.0377799,213.381399 87.333315,200.77659 Z" fill="#FAE501">
</path>
		<path d="M87.333315,87.333315 C101.73881,72.0274763 121.546366,63.0240418 144.054953,63.0240418 C166.563539,63.0240418 186.371095,72.0274763 200.77659,86.4329716 C213.381399,99.0377799 233.188955,99.0377799 245.793763,86.4329716 C258.398571,73.8281632 258.398571,54.0206072 245.793763,41.4157989 C219.683803,16.2061822 183.670065,0 144.054953,0 C104.439841,0 68.4261025,16.2061822 42.3161423,42.3161423 C29.711334,54.9209507 29.711334,74.7285067 42.3161423,87.333315 C54.9209507,99.0377799 74.7285067,99.0377799 87.333315,87.333315 Z" fill="#4FB5E1">
</path>
		<path d="M200.77659,200.77659 C186.371095,216.082429 166.563539,225.085863 144.054953,225.085863 C121.546366,225.085863 101.73881,216.082429 87.333315,201.676934 C74.7285067,189.072125 54.9209507,189.072125 42.3161423,201.676934 C29.711334,214.281742 29.711334,234.089298 42.3161423,246.694106 C68.4261025,271.903723 104.439841,288.109905 144.054953,288.109905 C183.670065,288.109905 219.683803,271.903723 245.793763,245.793763 C258.398571,233.188955 258.398571,213.381399 245.793763,200.77659 C233.188955,189.072125 213.381399,189.072125 200.77659,200.77659 Z" fill="#F05751">
</path>
		<ellipse fill="#0681B6" cx="64.8247287" cy="64.8247287" rx="31.5120209" ry="31.5120209">
</ellipse>
		<ellipse fill="#CD4739" cx="64.8247287" cy="223.285177" rx="31.5120209" ry="31.5120209">
</ellipse>
	</g>
</svg>

<svg xmlns="http://www.w3.org/2000/svg" width="800" height="800" preserveAspectRatio="xMidYMid" viewBox="-16.5 0 289 289"><path fill="#FAE501" d="M87.333 200.777c-15.306-14.406-24.309-34.213-24.309-56.722s9.003-42.316 23.409-56.722c12.605-12.604 12.605-32.412 0-45.017-12.605-12.605-32.412-12.605-45.017 0C16.206 68.426 0 104.44 0 144.055s16.206 75.629 42.316 101.739c12.605 12.605 32.413 12.605 45.017 0 11.705-12.605 11.705-32.413 0-45.017Z"/><path fill="#4FB5E1" d="M87.333 87.333c14.406-15.306 34.213-24.309 56.722-24.309s42.316 9.003 56.722 23.409c12.604 12.605 32.412 12.605 45.017 0 12.605-12.605 12.605-32.412 0-45.017C219.684 16.206 183.67 0 144.055 0S68.426 16.206 42.316 42.316c-12.605 12.605-12.605 32.413 0 45.017 12.605 11.705 32.413 11.705 45.017 0Z"/><path fill="#F05751" d="M200.777 200.777c-14.406 15.305-34.213 24.309-56.722 24.309s-42.316-9.004-56.722-23.41c-12.604-12.604-32.412-12.604-45.017 0-12.605 12.606-12.605 32.413 0 45.018 26.11 25.21 62.124 41.416 101.739 41.416s75.629-16.206 101.739-42.316c12.605-12.605 12.605-32.413 0-45.017-12.605-11.705-32.413-11.705-45.017 0Z"/><circle cx="64.825" cy="64.825" r="31.512" fill="#0681B6"/><circle cx="64.825" cy="223.285" r="31.512" fill="#CD4739"/></svg>
